logos/rome-icon.svg

<?xml version="1.0" encoding="UTF-8"?>
<svg width="256px" height="256px" viewBox="0 0 256 256" version="1.1" xmlns="http://www.w3.org/2000/svg" xmlns:xlink="http://www.w3.org/1999/xlink" preserveAspectRatio="xMidYMid">
    <g>
        <path d="M38.314903,153.174534 L38.314903,255.290877 L0.0212742382,255.290877 L0.0212742382,153.174534 L38.314903,153.174534 Z M255.312133,153.174534 L255.312133,255.290877 L217.018504,255.290877 L217.018504,153.174534 L255.312133,153.174534 Z M90.1460388,23.6924286 L100.258393,44.7822901 C101.086417,46.4980636 101.143316,48.485554 100.414808,50.2458887 C99.6863002,52.0062235 98.2415554,53.3722643 96.4432133,54.0011266 C62.4966205,66.0565283 38.2936288,97.2161959 38.2936288,133.758246 L38.2936288,140.445448 L-7.10542736e-15,140.445448 L-7.10542736e-15,133.758246 C-7.10542736e-15,81.9909327 33.9536842,37.8114313 81.799446,20.2956419 C85.0413173,19.105503 88.6564892,20.5767582 90.1460388,23.6924286 Z M173.498504,20.2034535 C221.358449,37.7759743 255.312133,81.9767499 255.312133,133.722789 L255.312133,140.409991 L217.018504,140.409991 L217.018504,133.722789 C217.018504,97.1807388 192.843878,66.0281626 158.86892,53.9656696 C157.070578,53.3368073 155.625833,51.9707664 154.897325,50.2104317 C154.168817,48.4500969 154.225716,46.4626066 155.05374,44.746833 L165.151911,23.6002402 C166.641461,20.4845698 170.256633,19.0133147 173.498504,20.2034535 Z" fill="#27272A"></path>
        <path d="M127.666704,60.7805172 C169.959889,60.7805172 204.253961,93.4364729 204.253961,133.722789 L204.253961,255.290877 L165.960332,255.290877 L165.960332,133.722789 C165.960332,113.576085 148.813296,97.2516529 127.666704,97.2516529 C106.520111,97.2516529 89.3730748,113.561902 89.3730748,133.722789 L89.3730748,255.290877 L51.079446,255.290877 L51.079446,133.722789 C51.079446,93.4364729 85.373518,60.7805172 127.666704,60.7805172 Z M151.961884,1.64522634 C154.080578,1.93374317 155.934397,3.21600025 156.951816,5.09668334 C157.969235,6.97736643 158.028095,9.23066697 157.110249,11.1619022 L155.273573,15.005448 L141.055291,44.7893815 C139.865977,47.2463397 137.312856,48.7440589 134.587922,48.5832873 C132.295032,48.4556419 129.987959,48.3918191 127.666704,48.3918191 C125.347812,48.3918191 123.036011,48.4556419 120.745485,48.5832873 C118.022122,48.7450159 115.470566,47.2465724 114.285208,44.7893815 L100.059834,15.005448 L98.2231579,11.1619022 C97.3053126,9.23066697 97.3641724,6.97736643 98.3815911,5.09668334 C99.3990098,3.21600025 101.252829,1.93374317 103.371524,1.64522634 C119.494036,-0.548408781 135.839371,-0.548408781 151.961884,1.64522634 Z" fill="#FFC905"></path>
    </g>
</svg>

<svg width="256" height="256" xmlns="http://www.w3.org/2000/svg" preserveAspectRatio="xMidYMid">
	<path d="M38.315 153.175V255.29H.02V153.175h38.294Zm216.997 0V255.29H217.02V153.175h38.293ZM90.146 23.692l10.112 21.09a6.687 6.687 0 0 1-3.815 9.22c-33.946 12.055-58.15 43.214-58.15 79.756v6.687H0v-6.687C0 81.991 33.954 37.811 81.8 20.296a6.694 6.694 0 0 1 8.346 3.396Zm83.353-3.489c47.86 17.573 81.813 61.774 81.813 113.52v6.687H217.02v-6.687c0-36.542-24.175-67.695-58.15-79.757a6.687 6.687 0 0 1-3.815-9.22L165.152 23.6a6.694 6.694 0 0 1 8.347-3.397Z" fill="#27272A"/>
	<path d="M127.667 60.78c42.293 0 76.587 32.656 76.587 72.943V255.29H165.96V133.723c0-20.147-17.147-36.471-38.293-36.471-21.147 0-38.294 16.31-38.294 36.47v121.569H51.08V133.723c0-40.287 34.295-72.942 76.588-72.942Zm24.295-59.135a6.701 6.701 0 0 1 5.148 9.517l-1.836 3.843-14.219 29.784a6.744 6.744 0 0 1-6.467 3.794 124.496 124.496 0 0 0-13.843 0 6.73 6.73 0 0 1-6.46-3.794L100.06 15.005l-1.837-3.843a6.701 6.701 0 0 1 5.149-9.517 180.207 180.207 0 0 1 48.59 0Z" fill="#FFC905"/>
</svg>
